X: 22920
T: Larry O'Gaff's
R: jig
M: 6/8
K: Dmajor
A|dDD FED|ABA AFD|GBG FAF|EFG A2B|
dDD FED|ABA AFD|GBG FAF|EFE D2:|
A|Add dcd|dfd ecA|Ace ede|fde d2d|
dfe dcB|AdB AFD|GBG FAF|1 EDE D2:|2 EFG ABc||

